assets/email.svg

<svg height="512pt" viewBox="0 0 512 512" width="512pt" xmlns="http://www.w3.org/2000/svg"><path d="m512 512h-512v-313.046875l256-169.957031 256 169.957031zm0 0" fill="#388cb3"/><path d="m512 198.953125-256-169.957031v483.003906h256zm0 0" fill="#265d77"/><path d="m416 414h-320v-414h235c46.867188 0 85 38.132812 85 85zm0 0" fill="#fff8d5"/><path d="m416 85c0-46.867188-38.132812-85-85-85h-75v414h160zm0 0" fill="#ffe3ba"/><path d="m512 512h-512v-302.964844l256 169.960938 256-169.960938zm0 0" fill="#b7e4f8"/><path d="m512 209.035156-256 169.960938v133.003906h256zm0 0" fill="#6fc8f1"/><path d="m512 512h-512v-43.046875l231.109375-153.433594c15.121094-10.039062 34.660156-10.039062 49.78125 0l231.109375 153.433594zm0 0" fill="#6fc8f1"/><path d="m512 468.953125-231.109375-153.433594c-7.5625-5.019531-16.226563-7.527343-24.890625-7.527343v204.007812h256zm0 0" fill="#4bbaed"/><path d="m416 90h-88v-90h3c46.867188 0 85 38.132812 85 85zm0 0" fill="#ffcd82"/></svg>

<svg id="email" xmlns="http://www.w3.org/2000/svg" width="512" height="512" viewBox="0 0 512 512">
  <path id="Path_5689" data-name="Path 5689" d="M512,512H0V198.953L256,29,512,198.953Zm0,0" fill="#388cb3"/>
  <path id="Path_5690" data-name="Path 5690" d="M512,198.953,256,29V512H512Zm0,0" fill="#265d77"/>
  <path id="Path_5691" data-name="Path 5691" d="M416,414H96V0H331a85.1,85.1,0,0,1,85,85Zm0,0" fill="#ffcd82"/>
  <path id="Path_5692" data-name="Path 5692" d="M416,85A85.1,85.1,0,0,0,331,0H256V414H416Zm0,0" fill="#ffe3ba"/>
  <path id="Path_5693" data-name="Path 5693" d="M512,512H0V209.035L256,379,512,209.035Zm0,0" fill="#b7e4f8"/>
  <path id="Path_5694" data-name="Path 5694" d="M512,209.035,256,379V512H512Zm0,0" fill="#6fc8f1"/>
  <path id="Path_5695" data-name="Path 5695" d="M512,512H0V468.953L231.109,315.52a44.907,44.907,0,0,1,49.781,0L512,468.953Zm0,0" fill="#6fc8f1"/>
  <path id="Path_5696" data-name="Path 5696" d="M512,468.953,280.891,315.52A44.949,44.949,0,0,0,256,307.992V512H512Zm0,0" fill="#4bbaed"/>
  <path id="Path_5697" data-name="Path 5697" d="M416,90H328V0h3a85.1,85.1,0,0,1,85,85Zm0,0" fill="#ffcd82"/>
</svg>
